X:153
T:Thrush in the Straw
Z: id:dc-jig-128
M:6/8
L:1/8
K:G Major
d|efg edB|c2A BGD|G3 BdB|BAG ABd|!
efg edB|c2A BGD|G3 BdB|AGF G2:|!
D|GBd g3|agf g2e|fed edB|c2A BGD|!
GBd g3|agf g2e|fed edB|AGF G2:|!